X:1
T:Title
%%score { ( 1 3 ) | ( 2 4 ) }
L:1/8
M:4/4
K:Ab
V:1 treble nm="Grand Piano"
V:3 treble 
V:2 bass 
V:4 bass 
V:1
 z4 z2[Q:1/4=100] [CA][DB] | [Ec]2 [Ec]2 .[FB]2 [EG]F | E4 z2 [A,EA]B | c2 e2 ed c2 | %4
 B6[K:bass][K:treble] z2 | [Ec]2 [Ec]2 .[FB]2 A,-[A,F] | E4 z4 | [A,DF]2 [DFB]2 [CEA]2 [B,EG]2 | %8
[M:3/4] [CEA]6 |[M:1/4] z2 |[M:4/4] z2 [G,E]>[G,E] [G,E]>[B,EG] [A,EA]>[EB] | %11
 c->[Ec-] [Ec-]>[Ec-] [Ec]2 c>d | e2 [Ec]2 [=Dc]2 [DB]2 | B6 z2 | e2 c2 [EA]2 E2 | F4 d2 [Fc][FB] | %16
 A2 A2 Bc d2 | [Ec]6 cd | e2 c2 [EA]2 E2 |[M:9/8] F3- F d2- d[EFc][DFB] | %20
[M:4/4] [CEA]2 [CEA]2 [B,EG]2 [DEB]2 |[M:3/4] [CEA]6 |] %22
V:2
 z4 z2 [A,,A,][A,,A,] | [A,,A,]2 [A,,A,]2 z A z D | z4 A2 C,[E,G,E] | %3
 [A,E]2 [A,CE]2 [G,B,E]2 [A,E]2 | [E,G,E]6 [C,A,][B,,G,] | [A,,A,]2 [A,,A,]2 z A z D | z4 A2 C,C, | %7
 D,2 D,2 E,2 E,2 |[M:3/4] A,,6 |[M:1/4][K:treble] G>A |[M:4/4] B6[K:bass] z2 | %11
 [A,,A,]>[A,,A,] [A,,A,]>[A,,A,] [A,,A,]2[K:treble] [A,E]>[A,B,E] | %12
 [A,CA]2[K:bass] [A,,A,]2 [B,,A,]2 [B,,A,]2 | %13
 [E,G,E]>[E,G,] [E,G,]>[E,G,] [E,G,]2[K:treble] [A,E][A,B,E] | %14
 [A,CA]2[K:bass] [A,E]2 [C,A,]2 [C,A,]2 | D4 z4 | [E,CE]2 [E,CE]2 G,A, [E,B,E]2 | %17
 [A,,A,]6[K:treble] [A,E][A,B,E] | [A,CA]2[K:bass] [A,E]2 [C,A,]2 [C,A,]2 |[M:9/8] .D6 z3 | %20
[M:4/4] E,2 E,2 E,2 E,2 |[M:3/4] A,,6 |] %22
V:3
 x8 | z4 z2 A,2 | [A,C]6 z2 | x8 | z4 z[K:bass] D,[K:treble][EA][EB] | z4 z2 .[EG]2 | %6
 [A,C]6 [A,EA][A,EG] | x8 |[M:3/4] x6 |[M:1/4] x2 |[M:4/4] x8 | E2 z2 z4 | x8 | z z/ E/ E>E E2 cd | %14
 x8 | x8 | x8 | x8 | x8 |[M:9/8] x9 |[M:4/4] x8 |[M:3/4] x6 |] %22
V:4
 x8 | z4 [D,A,]2 D,2 | A,,6 z2 | x8 | x8 | z4 [D,A,]2 D,2 | A,,6 z2 | x8 |[M:3/4] x6 | %9
[M:1/4][K:treble] x2 |[M:4/4] z2[K:bass] E,>E, E,>D, C,>[B,,G,] | x6[K:treble] x2 | x2[K:bass] x6 | %13
 x6[K:treble] x2 | x2[K:bass] x6 | [D,A,]4- [D,A,F]2 [D,D][D,D] | z4 [E,E]2 z2 | x6[K:treble] x2 | %18
 x2[K:bass] x6 |[M:9/8] [D,A,]3- [D,A,]- [D,A,F]2- [D,A,F]D,D, |[M:4/4] x8 |[M:3/4] x6 |] %22

